X: 279
T: Kiten mi, Kiten devere
B: incoming
M:7/16
L:1/16
Q: 1/4=110
K:C
V:1 
[CE]2 [CE]2 "G"[DF]3|"Bb"[DF]4 "F" [FA]3|"G"[EG]4 [DF]2[CE]|[C-E-]4 [CE]2z:|
V:2 
C4 B,3|_B,4 F,3|G,2G,2 =B,3|C4 C2z :|
W: from Martin Junghans/Jutta Weber-Karn transcription
W: http://www.folkloretanznoten.de/
% abcbook-tune_id 63cb082fcc308fa21c217cca
% abcbook-tune_composer_id 
% abcbook-boost 0
% abcbook-difficulty 0
% abcbook-tags balkan dances
% abcbook-tablature 
% abcbook-transpose 
% abcbook-tuning 
% abcbook-lastupdated 1674250287866
% abcbook-soundfonts 
% abcbook-repeats 1


